; generated by Slic3r 1.2.9 on 2023-11-03 at 10:47:31

; external perimeters extrusion width = 0.30mm
; perimeters extrusion width = 0.31mm
; infill extrusion width = 0.31mm
; solid infill extrusion width = 0.31mm
; top infill extrusion width = 0.31mm

M107
M104 S190 ; set temperature
G28 ; home all axes
G1 Z5 F5000 ; lift nozzle

M109 S190 ; wait for temperature to be reached
G21 ; set units to millimeters
G90 ; use absolute coordinates
M82 ; use absolute distances for extrusion
G92 E0
G1 Z0.300 F7800.000
G1 E-2.00000 F2400.00000
G92 E0
G1 X21.895 Y21.890 F7800.000
G1 E2.00000 F2400.00000
G1 X16.891 Y26.895 E2.47275 F1800.000
G1 X16.315 Y27.427 E2.52515
G1 X15.654 Y27.973 E2.58242
G1 X14.929 Y28.499 E2.64224
G1 X14.577 Y28.730 E2.67042
G1 X13.824 Y29.176 E2.72888
G1 X13.392 Y29.406 E2.76154
G1 X13.011 Y29.593 E2.78991
G1 X12.191 Y29.949 E2.84967
G1 X11.732 Y30.123 E2.88245
G1 X10.871 Y30.402 E2.94287
G1 X10.009 Y30.622 E3.00235
G1 X9.144 Y30.787 E3.06117
G1 X8.265 Y30.898 E3.12037
G1 X7.085 Y30.962 E3.19933
G1 X-7.130 Y30.961 E4.14896
G1 X-8.361 Y30.889 E4.23133
G1 X-9.229 Y30.773 E4.28979
G1 X-9.701 Y30.688 E4.32188
G1 X-10.582 Y30.482 E4.38228
G1 X-11.436 Y30.226 E4.44184
G1 X-11.824 Y30.090 E4.46931
G1 X-12.673 Y29.747 E4.53049
G1 X-13.473 Y29.364 E4.58977
G1 X-14.263 Y28.924 E4.65016
G1 X-14.673 Y28.668 E4.68246
G1 X-15.390 Y28.173 E4.74066
G1 X-16.085 Y27.625 E4.79977
G1 X-16.924 Y26.863 E4.87547
G1 X-26.987 Y16.795 E5.82645
G1 X-27.566 Y16.156 E5.88405
G1 X-28.112 Y15.471 E5.94256
G1 X-28.621 Y14.746 E6.00175
G1 X-28.842 Y14.399 E6.02925
G1 X-29.288 Y13.620 E6.08923
G1 X-29.689 Y12.804 E6.14997
G1 X-30.029 Y11.985 E6.20918
G1 X-30.196 Y11.523 E6.24200
G1 X-30.463 Y10.650 E6.30297
G1 X-30.669 Y9.791 E6.36202
G1 X-30.820 Y8.925 E6.42072
G1 X-30.916 Y8.058 E6.47900
G1 X-30.959 Y7.197 E6.53661
G1 X-30.961 Y-6.862 E7.47581
G1 X-30.940 Y-7.712 E7.53263
G1 X-30.864 Y-8.583 E7.59100
G1 X-30.735 Y-9.449 E7.64950
G1 X-30.641 Y-9.922 E7.68172
G1 X-30.422 Y-10.799 E7.74210
G1 X-30.154 Y-11.644 E7.80137
G1 X-30.008 Y-12.042 E7.82966
G1 X-29.656 Y-12.875 E7.89006
G1 X-29.443 Y-13.317 E7.92286
G1 X-29.022 Y-14.095 E7.98195
G1 X-28.545 Y-14.859 E8.04211
G1 X-28.036 Y-15.571 E8.10061
G1 X-27.228 Y-16.537 E8.18474
G1 X-26.784 Y-17.003 E8.22771
G1 X-17.051 Y-26.735 E9.14724
G1 X-16.339 Y-27.406 E9.21255
G1 X-15.672 Y-27.958 E9.27043
G1 X-15.292 Y-28.243 E9.30217
G1 X-14.557 Y-28.741 E9.36144
G1 X-13.785 Y-29.197 E9.42140
G1 X-13.418 Y-29.392 E9.44910
G1 X-12.607 Y-29.775 E9.50903
G1 X-12.153 Y-29.964 E9.54189
G1 X-11.305 Y-30.268 E9.60208
G1 X-10.436 Y-30.519 E9.66253
G1 X-9.174 Y-30.781 E9.74860
G1 X-8.705 Y-30.849 E9.78024
G1 X-7.835 Y-30.931 E9.83866
G1 X-6.860 Y-30.962 E9.90379
G1 X7.071 Y-30.960 E10.83449
G1 X7.933 Y-30.925 E10.89209 F1800.000
G1 X8.398 Y-30.884 E10.92333
G1 X9.261 Y-30.767 E10.98151
G1 X9.672 Y-30.692 E11.00935
G1 X10.546 Y-30.491 E11.06928
G1 X11.016 Y-30.358 E11.10190
G1 X11.857 Y-30.076 E11.16120
G1 X12.249 Y-29.925 E11.18924
G1 X12.701 Y-29.734 E11.22205
G1 X13.509 Y-29.345 E11.28198
G1 X14.297 Y-28.903 E11.34230
G1 X15.039 Y-28.422 E11.40141
G1 X15.369 Y-28.187 E11.42846
G1 X15.745 Y-27.901 E11.46003
G1 X16.407 Y-27.345 E11.51774
G1 X17.081 Y-26.704 E11.57987
G1 X26.815 Y-16.972 E12.49945
G1 X27.550 Y-16.173 E12.57195
G1 X28.092 Y-15.496 E12.62988
G1 X28.599 Y-14.778 E12.68862
G1 X29.071 Y-14.011 E12.74875
G1 X29.306 Y-13.584 E12.78137
G1 X29.494 Y-13.215 E12.80904
G1 X29.867 Y-12.391 E12.86942
G1 X30.184 Y-11.555 E12.92915
G1 X30.451 Y-10.695 E12.98931
G1 X30.662 Y-9.822 E13.04935
G1 X30.815 Y-8.953 E13.10828
G1 X30.913 Y-8.087 E13.16650
G1 X30.943 Y-7.626 E13.19736
G1 X30.960 Y-6.791 E13.25314
G1 X30.956 Y7.295 E14.19417
G1 X30.909 Y8.143 E14.25089
G1 X30.807 Y9.011 E14.30929
G1 X30.648 Y9.891 E14.36904
G1 X30.539 Y10.363 E14.40139
G1 X30.296 Y11.221 E14.46098
G1 X30.164 Y11.616 E14.48876
G1 X29.995 Y12.076 E14.52158
G1 X29.643 Y12.904 E14.58162
G1 X29.462 Y13.282 E14.60962
G1 X29.037 Y14.071 E14.66951
G1 X28.573 Y14.819 E14.72831
G1 X28.049 Y15.555 E14.78863
G1 X27.510 Y16.220 E14.84587
G1 X26.942 Y16.842 E14.90213
G1 X21.927 Y21.859 E15.37603
G1 E13.37603 F2400.00000
G92 E0
G1 X-9.416 Y-4.353 F7800.000
G1 E2.00000 F2400.00000
G1 X-8.983 Y-5.186 E2.06273 F1800.000
G1 X-8.497 Y-5.949 E2.12318
G1 X-7.946 Y-6.667 E2.18364
G1 X-7.334 Y-7.334 E2.24409
G1 X-6.667 Y-7.945 E2.30454
G1 X-5.949 Y-8.496 E2.36499
G1 X-5.186 Y-8.982 E2.42544
G1 X-4.384 Y-9.400 E2.48589
G1 X-3.548 Y-9.747 E2.54634
G1 X-2.685 Y-10.019 E2.60680
G1 X-1.801 Y-10.214 E2.66725
G1 X-0.904 Y-10.333 E2.72770
G1 X-0.157 Y-10.365 E2.77768
G1 X0.895 Y-10.334 E2.84794
G1 X1.801 Y-10.214 E2.90902
G1 X2.685 Y-10.019 E2.96947
G1 X3.580 Y-9.736 E3.03221
G1 X3.693 Y-10.008 E3.05188
G1 X3.389 Y-10.167 E3.07478
G1 X2.784 Y-10.631 E3.12575
G1 X2.288 Y-11.171 E3.17470
G1 X2.035 Y-11.533 E3.20419
G1 X1.697 Y-12.183 E3.25315
G1 X1.468 Y-12.910 E3.30411
G1 X1.368 Y-13.669 E3.35520
G1 X1.404 Y-14.443 E3.40695
G1 X1.560 Y-15.145 E3.45503
G1 X1.711 Y-15.559 E3.48448
G1 X2.049 Y-16.209 E3.53343
G1 X2.514 Y-16.814 E3.58440
G1 X3.076 Y-17.330 E3.63536
G1 X3.719 Y-17.739 E3.68628
G1 X4.383 Y-18.015 E3.73432
G1 X4.820 Y-18.134 E3.76460
G1 X5.549 Y-18.230 E3.81372
G1 X6.281 Y-18.198 E3.86268
G1 X6.716 Y-18.121 E3.89217
G1 X7.415 Y-17.901 E3.94112
G1 X8.092 Y-17.549 E3.99209
G1 X8.673 Y-17.103 E4.04104
G1 X8.983 Y-16.793 E4.07032
G1 X9.420 Y-16.228 E4.11805
G1 X9.766 Y-15.566 E4.16792
G1 X9.902 Y-15.205 E4.19367
G1 X10.017 Y-14.775 E4.22343
G1 X10.109 Y-14.078 E4.27037
G1 X10.109 Y-13.637 E4.29987
G1 X10.013 Y-12.910 E4.34882
G1 X9.784 Y-12.183 E4.39978
G1 X9.431 Y-11.506 E4.45075
G1 X8.967 Y-10.901 E4.50171
G1 X8.427 Y-10.406 E4.55067
G1 X8.065 Y-10.153 E4.58016
G1 X7.415 Y-9.814 E4.62911
G1 X6.687 Y-9.585 E4.68007
G1 X5.961 Y-9.489 E4.72903
G1 X5.520 Y-9.489 E4.75852
G1 X4.793 Y-9.585 E4.80747
G1 X4.466 Y-9.688 E4.83038
G1 X4.353 Y-9.416 E4.85005
G1 X5.047 Y-9.055 E4.90232
G1 X5.942 Y-8.502 E4.97257
G1 X6.667 Y-7.945 E5.03366
G1 X7.334 Y-7.334 E5.09411
G1 X7.946 Y-6.667 E5.15456
G1 X8.497 Y-5.949 E5.21501
G1 X8.983 Y-5.186 E5.27546
G1 X9.401 Y-4.383 E5.33591
G1 X9.747 Y-3.547 E5.39637
G1 X10.019 Y-2.684 E5.45682
G1 X10.215 Y-1.801 E5.51727
G1 X10.333 Y-0.904 E5.57772
G1 X10.373 Y0.000 E5.63817
G1 X10.333 Y0.905 E5.69862
G1 X10.215 Y1.802 E5.75907
G1 X10.019 Y2.685 E5.81953
G1 X9.744 Y3.557 E5.88058
G1 X10.008 Y3.673 E5.89982
G1 X10.185 Y3.365 E5.92353
G1 X10.632 Y2.784 E5.97248
G1 X11.172 Y2.289 E6.02143
G1 X11.533 Y2.036 E6.05088
G1 X12.171 Y1.703 E6.09896
G1 X12.909 Y1.468 E6.15071
G1 X13.667 Y1.368 E6.20180
G1 X14.429 Y1.402 E6.25272
G1 X15.131 Y1.557 E6.30076
G1 X15.557 Y1.710 E6.33105
G1 X16.210 Y2.050 E6.38017
G1 X16.815 Y2.514 E6.43113
G1 X17.330 Y3.077 E6.48209
G1 X17.740 Y3.720 E6.53306
G1 X18.032 Y4.425 E6.58402
G1 X18.191 Y5.140 E6.63297
G1 X18.229 Y5.580 E6.66247
G1 X18.197 Y6.312 E6.71142
G1 X18.032 Y7.057 E6.76238
G1 X17.752 Y7.734 E6.81134
G1 X17.531 Y8.116 E6.84083
G1 X17.085 Y8.697 E6.88978
G1 X16.522 Y9.213 E6.94075
G1 X15.904 Y9.607 E6.98970
G1 X15.504 Y9.793 E7.01919
G1 X14.805 Y10.013 E7.06815
G1 X14.079 Y10.109 E7.11710
G1 X13.637 Y10.109 E7.14659
G1 X12.911 Y10.013 E7.19555
G1 X12.183 Y9.784 E7.24651
G1 X11.507 Y9.432 E7.29747
G1 X10.901 Y8.967 E7.34844
G1 X10.385 Y8.404 E7.39953
G1 X9.970 Y7.749 E7.45128
G1 X9.696 Y7.084 E7.49936
G1 X9.582 Y6.658 E7.52881
G1 X9.486 Y5.932 E7.57776
G1 X9.519 Y5.168 E7.62885
G1 X9.679 Y4.455 E7.67763
G1 X9.414 Y4.358 E7.69648
G1 X8.983 Y5.187 E7.75888
G1 X8.497 Y5.950 E7.81933
G1 X7.946 Y6.668 E7.87978
G1 X7.334 Y7.335 E7.94023
G1 X6.667 Y7.946 E8.00068
G1 X5.949 Y8.497 E8.06114
G1 X5.186 Y8.983 E8.12159
G1 X4.384 Y9.401 E8.18204
G1 X3.548 Y9.747 E8.24249
G1 X2.685 Y10.020 E8.30294
G1 X1.801 Y10.215 E8.36339
G1 X0.904 Y10.334 E8.42384
G1 X0.000 Y10.373 E8.48430
G1 X-0.904 Y10.334 E8.54475
G1 X-1.801 Y10.215 E8.60520
G1 X-2.685 Y10.020 E8.66565
G1 X-3.570 Y9.740 E8.72769
G1 X-3.689 Y9.996 E8.74653
G1 X-3.113 Y10.362 E8.79214
G1 X-2.765 Y10.652 E8.82242
G1 X-2.288 Y11.172 E8.86953
G1 X-2.035 Y11.534 E8.89902
G1 X-1.697 Y12.184 E8.94798
G1 X-1.468 Y12.911 E8.99894
G1 X-1.368 Y13.668 E9.04990
G1 X-1.400 Y14.400 E9.09886
G1 X-1.477 Y14.835 E9.12835
G1 X-1.697 Y15.533 E9.17730
G1 X-2.049 Y16.210 E9.22827
G1 X-2.514 Y16.815 E9.27923
G1 X-3.076 Y17.331 E9.33019
G1 X-3.719 Y17.741 E9.38116
G1 X-4.424 Y18.033 E9.43212
G1 X-5.140 Y18.191 E9.48108
G1 X-5.579 Y18.230 E9.51057
G1 X-6.311 Y18.198 E9.55952
G1 X-7.056 Y18.033 E9.61049
G1 X-7.733 Y17.752 E9.65944
G1 X-8.116 Y17.531 E9.68893
G1 X-8.697 Y17.085 E9.73789
G1 X-9.192 Y16.545 E9.78684
G1 X-9.445 Y16.183 E9.81633
G1 X-9.784 Y15.533 E9.86529
G1 X-10.013 Y14.806 E9.91625
G1 X-10.113 Y14.050 E9.96721
G1 X-10.079 Y13.286 E10.01830
G1 X-9.909 Y12.530 E10.07005
G1 X-9.633 Y11.865 E10.11813
G1 X-9.413 Y11.483 E10.14758
G1 X-8.967 Y10.902 E10.19654
G1 X-8.404 Y10.387 E10.24750
G1 X-7.761 Y9.977 E10.29846
G1 X-7.057 Y9.685 E10.34938
G1 X-6.355 Y9.529 E10.39742
G1 X-5.904 Y9.488 E10.42771
G1 X-5.169 Y9.520 E10.47682
G1 X-4.459 Y9.677 E10.52542
G1 X-4.362 Y9.412 E10.54425
G1 X-5.186 Y8.983 E10.60630
G1 X-5.949 Y8.497 E10.66675
G1 X-6.667 Y7.946 E10.72720
G1 X-7.334 Y7.335 E10.78766
G1 X-7.946 Y6.668 E10.84811
G1 X-8.502 Y5.942 E10.90919
G1 X-9.055 Y5.048 E10.97945
G1 X-9.401 Y4.384 E11.02943
G1 X-9.747 Y3.548 E11.08988
G1 X-10.019 Y2.685 E11.15033
G1 X-10.215 Y1.802 E11.21078
G1 X-10.333 Y0.905 E11.27124
G1 X-10.373 Y0.000 E11.33169
G1 X-10.333 Y-0.904 E11.39214
G1 X-10.215 Y-1.801 E11.45259
G1 X-10.017 Y-2.693 E11.51367
G1 X-9.707 Y-3.633 E11.57979
G1 X-9.980 Y-3.748 E11.59959
G1 X-10.167 Y-3.388 E11.62671
G1 X-10.632 Y-2.783 E11.67768
G1 X-11.172 Y-2.288 E11.72663
G1 X-11.533 Y-2.035 E11.75612
G1 X-12.183 Y-1.696 E11.80508
G1 X-12.911 Y-1.467 E11.85604
G1 X-13.667 Y-1.367 E11.90700
G1 X-14.399 Y-1.399 E11.95596
G1 X-14.834 Y-1.476 E11.98545
G1 X-15.533 Y-1.696 E12.03440
G1 X-16.210 Y-2.049 E12.08537
G1 X-16.815 Y-2.513 E12.13633
G1 X-17.332 Y-3.077 E12.18742
G1 X-17.746 Y-3.731 E12.23917
G1 X-18.021 Y-4.397 E12.28725
G1 X-18.135 Y-4.822 E12.31670
G1 X-18.231 Y-5.551 E12.36578
G1 X-18.195 Y-6.325 E12.41753
G1 X-18.038 Y-7.027 E12.46561
G1 X-17.888 Y-7.441 E12.49506
G1 X-17.549 Y-8.091 E12.54401
G1 X-17.103 Y-8.673 E12.59296
G1 X-16.791 Y-8.984 E12.62241
G1 X-16.221 Y-9.423 E12.67049
G1 X-15.535 Y-9.783 E12.72224
G1 X-14.805 Y-10.013 E12.77333
G1 X-14.049 Y-10.112 E12.82430
G1 X-13.317 Y-10.080 E12.87325
G1 X-12.883 Y-10.004 E12.90270
G1 X-12.196 Y-9.788 E12.95078
G1 X-11.508 Y-9.432 E13.00253
G1 X-10.900 Y-8.965 E13.05375
G1 X-10.378 Y-8.393 E13.10550
G1 X-9.992 Y-7.785 E13.15358
G1 X-9.806 Y-7.386 E13.18302
G1 X-9.585 Y-6.687 E13.23198
G1 X-9.486 Y-5.931 E13.28294
G1 X-9.518 Y-5.199 E13.33189
G1 X-9.595 Y-4.764 E13.36139
G1 X-9.689 Y-4.466 E13.38228
G1 X-9.458 Y-4.370 E13.39895
G1 X-14.448 Y3.003 F7800.000
G1 X-13.415 Y8.029 F7800.000
G1 X-9.085 Y8.414 F7800.000
G1 X-7.836 Y8.611 F7800.000
G1 X-7.298 Y8.720 F7800.000
G1 X-6.916 Y8.796 F7800.000
G1 X-6.606 Y9.953 F7800.000
G1 X-6.272 Y10.059 F7800.000
G1 X-5.891 Y10.024 E13.42452 F1800.000
G1 X-5.239 Y10.053 E13.46810
G1 X-4.586 Y10.198 E13.51280
G1 X-3.968 Y10.453 E13.55748
G1 X-3.430 Y10.796 E13.60011
G1 X-3.135 Y11.041 E13.62568
G1 X-2.707 Y11.508 E13.66804
G1 X-2.494 Y11.812 E13.69284
G1 X-2.194 Y12.390 E13.73632
G1 X-1.992 Y13.028 E13.78102
G1 X-1.905 Y13.691 E13.82572
G1 X-1.933 Y14.341 E13.86920
G1 X-1.998 Y14.707 E13.89400
G1 X-2.194 Y15.328 E13.93748
G1 X-2.503 Y15.921 E13.98218
G1 X-2.910 Y16.452 E14.02688
G1 X-3.403 Y16.904 E14.07159
G1 X-3.968 Y17.264 E14.11629
G1 X-4.586 Y17.520 E14.16099
G1 X-5.221 Y17.661 E14.20447
G1 X-5.591 Y17.693 E14.22927
G1 X-6.241 Y17.665 E14.27275
G1 X-6.895 Y17.520 E14.31745
G1 X-7.496 Y17.271 E14.36093
G1 X-7.817 Y17.085 E14.38573
G1 X-8.334 Y16.689 E14.42921
G1 X-8.773 Y16.209 E14.47269
G1 X-8.986 Y15.905 E14.49749
G1 X-9.287 Y15.328 E14.54097
G1 X-9.488 Y14.690 E14.58567
G1 X-9.575 Y14.026 E14.63037
G1 X-9.546 Y13.356 E14.67515
G1 X-9.397 Y12.692 E14.72063
G1 X-9.152 Y12.103 E14.76328
G1 X-8.967 Y11.782 E14.78805
G1 X-8.571 Y11.265 E14.83153
G1 X-8.077 Y10.813 E14.87623
G1 X-7.513 Y10.454 E14.92094
G1 X-6.895 Y10.198 E14.96561
G1 X-6.316 Y10.069 E15.00523
G1 X-6.189 Y10.589 F7800.000
G1 X-5.878 Y10.561 E15.02610 F1800.000
G1 X-5.309 Y10.586 E15.06414
G1 X-4.748 Y10.710 E15.10258
G1 X-4.216 Y10.930 E15.14101
G1 X-3.746 Y11.229 E15.17823
G1 X-3.506 Y11.429 E15.19910
G1 X-3.126 Y11.844 E15.23670
G1 X-2.953 Y12.091 E15.25681
G1 X-2.690 Y12.595 E15.29481
G1 X-2.517 Y13.144 E15.33325
G1 X-2.442 Y13.715 E15.37169
G1 X-2.467 Y14.283 E15.40969
G1 X-2.519 Y14.579 E15.42981
G1 X-2.690 Y15.122 E15.46781
G1 X-2.956 Y15.632 E15.50625
G1 X-3.306 Y16.089 E15.54469
G1 X-3.731 Y16.478 E15.58313
G1 X-4.216 Y16.787 E15.62157
G1 X-4.748 Y17.007 E15.66002
G1 X-5.303 Y17.130 E15.69802
G1 X-5.603 Y17.156 E15.71813
G1 X-6.171 Y17.132 E15.75613
G1 X-6.733 Y17.007 E15.79457
G1 X-7.258 Y16.789 E15.83257
G1 X-7.519 Y16.639 E15.85269
G1 X-7.970 Y16.293 E15.89069
G1 X-8.355 Y15.873 E15.92869
G1 X-8.527 Y15.627 E15.94880
G1 X-8.790 Y15.122 E15.98680
G1 X-8.963 Y14.573 E16.02524
G1 X-9.038 Y14.003 E16.06369
G1 X-9.013 Y13.427 E16.10215
G1 X-8.885 Y12.855 E16.14135
G1 X-8.671 Y12.340 E16.17858
G1 X-8.520 Y12.080 E16.19868
G1 X-8.174 Y11.628 E16.23668
G1 X-7.750 Y11.240 E16.27512
G1 X-7.265 Y10.931 E16.31356
G1 X-6.733 Y10.710 E16.35199
G1 X-6.233 Y10.599 E16.38621
G1 X-6.075 Y10.312 F7800.000
G1 X-4.918 Y8.519 F7800.000
G1 X-5.642 Y8.058 E16.44353 F1800.000
G1 X-6.323 Y7.536 E16.50086
G1 X-6.955 Y6.956 E16.55819
G1 X-7.535 Y6.323 E16.61551
G1 X-8.061 Y5.638 E16.67322
G1 X-8.589 Y4.783 E16.74035
G1 X-8.915 Y4.158 E16.78746
G1 X-9.243 Y3.365 E16.84479
G1 X-9.501 Y2.546 E16.90212
G1 X-9.687 Y1.709 E16.95944
G1 X-9.799 Y0.858 E17.01677
G1 X-9.836 Y0.000 E17.07410
G1 X-9.799 Y-0.857 E17.13142
G1 X-9.687 Y-1.708 E17.18875
G1 X-9.500 Y-2.551 E17.24646
G1 X-9.185 Y-3.505 E17.31359
G1 X-8.915 Y-4.157 E17.36070
G1 X-8.519 Y-4.918 E17.41803
G1 X-8.058 Y-5.641 E17.47535
G1 X-7.535 Y-6.322 E17.53268
G1 X-6.955 Y-6.955 E17.59001
G1 X-6.323 Y-7.535 E17.64733
G1 X-5.642 Y-8.057 E17.70466
G1 X-4.918 Y-8.518 E17.76199
G1 X-4.157 Y-8.914 E17.81931
G1 X-3.364 Y-9.243 E17.87664
G1 X-2.546 Y-9.501 E17.93397
G1 X-1.708 Y-9.686 E17.99129
G1 X-0.857 Y-9.799 E18.04862
G1 X-0.153 Y-9.829 E18.09573 F1800.000
G1 X0.852 Y-9.799 E18.16286
G1 X1.708 Y-9.686 E18.22057
G1 X2.546 Y-9.501 E18.27790
G1 X3.364 Y-9.243 E18.33522
G1 X4.157 Y-8.914 E18.39255
G1 X4.783 Y-8.589 E18.43966
G1 X5.637 Y-8.061 E18.50679
G1 X6.323 Y-7.535 E18.56450
G1 X6.955 Y-6.955 E18.62183
G1 X7.535 Y-6.322 E18.67915
G1 X8.058 Y-5.641 E18.73648
G1 X8.519 Y-4.918 E18.79381
G1 X8.915 Y-4.157 E18.85114
G1 X9.243 Y-3.364 E18.90846
G1 X9.501 Y-2.545 E18.96579
G1 X9.687 Y-1.708 E19.02312
G1 X9.799 Y-0.857 E19.08044
G1 X9.836 Y0.000 E19.13777
G1 X9.799 Y0.858 E19.19510
G1 X9.687 Y1.709 E19.25242
G1 X9.501 Y2.546 E19.30975
G1 X9.243 Y3.365 E19.36708
G1 X8.915 Y4.158 E19.42440
G1 X8.519 Y4.919 E19.48173
G1 X8.058 Y5.642 E19.53906
G1 X7.535 Y6.323 E19.59638
G1 X6.955 Y6.956 E19.65371
G1 X6.323 Y7.536 E19.71104
G1 X5.642 Y8.058 E19.76836
G1 X4.918 Y8.519 E19.82569
G1 X4.157 Y8.915 E19.88302
G1 X3.364 Y9.244 E19.94035
G1 X2.546 Y9.502 E19.99767
G1 X1.708 Y9.687 E20.05500
G1 X0.857 Y9.799 E20.11233
G1 X0.000 Y9.837 E20.16965
G1 X-0.857 Y9.799 E20.22698
G1 X-1.708 Y9.687 E20.28431
G1 X-2.546 Y9.502 E20.34163
